X:16
T:The Mist-Covered Mountains of Home
R:Slow Air
C:Traditional
O:Scotland
M:3/4
L:1/8
K:G
|:A4 AG |A3 B cd |e3 A B2 |A3 G EF |G4 GF |G3 A B2 |B2 A2 B2 |A3 G E2 |c4 Bc |\
d3 c d2 |e3 f g2 |B3 A G2 |e3 c e2 |d4 cB |A2 GE A2 |1 A4 EG :|2 A4 e2 ||\
|:e6 |e4 ed |e3 f g2 |e3 d BA |G3 D G2 |d4 d2 |e4 e2 |d3 c B2 |c4 Bc |\
d3 c d2 |e3 f g2 |B3 A G2 |A e3 Ae |d4 cB |A2 GE A2 |1 A4 e2 :|2 A4||\

